assets/images/green-top.svg

<svg fill="none" height="702" viewBox="0 0 3024 702" width="3024" xmlns="http://www.w3.org/2000/svg"><path d="m413.75 522.396c-34.211-6.563-232.229 11.53-263.5 0-72-26.549-150.5-100.566-150.5-100.566v280.17h4284.3s-131.55-43.849-148.1-47.181c-5.95-1.196-23.52-5.666-45.64-11.302l-.16-.041-.06-.012c-39.36-10.024-93.05-23.697-121.59-29.171-34.2-6.561-87.11-22.347-122.32-32.856l-.02-.005c-10.76-3.21-19.86-5.926-26.27-7.736-27.41-7.735-112.57-6.193-130.53-4.532-17.95 1.661-97.75 12.787-116.41 16.94-9.74 2.168-46.78-.31-82.01-2.667-32.26-2.158-63-4.214-69.85-2.506-25.5 6.354-39.83 1.468-70.73-9.068-18.2-6.203-42.14-14.365-77.49-23.343-1.06-.27-2.31-.54-3.74-.829-1.41-.285-2.99-.588-4.77-.927-20.07-3.82-64.4-12.261-144.76-50.917-36.03-17.332-101.48-72.863-145.35-128.494-12.74-18.236-29.83-33.279-48.96-50.114l-.01-.012c-12.51-11.015-25.9-22.8-39.52-36.751-3.41-3.49-6.68-6.865-9.88-10.166-30.33-31.261-54.12-55.777-121.03-107.531-145.02-112.1314-336.29-226.9135-513.29-120.5079-4.75 2.8574-12.67 7.4561-22.77 13.3114-43.68 25.3446-127.92 74.2275-170.56 107.1965-66.92 51.754-90.7 76.27-121.03 107.531-3.2 3.301-6.47 6.676-9.88 10.166-13.62 13.951-27.01 25.736-39.52 36.751l-.01.012c-19.13 16.835-36.22 31.878-48.96 50.114-39.87 57.066-109.32 111.162-145.35 128.494-80.36 38.656-124.69 47.097-144.76 50.917l-.03.006c-3.58.682-6.38 1.216-8.48 1.75-35.35 8.978-59.29 17.14-77.49 23.343-30.9 10.536-45.23 15.422-70.73 9.068-6.85-1.708-37.58.348-69.85 2.506-35.23 2.357-72.27 4.835-82.01 2.667-18.66-4.153-98.46-15.279-116.41-16.94-17.96-1.661-103.12-3.203-130.53 4.532-6.413 1.81-15.515 4.526-26.269 7.736l-.014.005c-35.211 10.505-88.121 26.293-122.328 32.856-248.356 47.639-184.666-46.596-420.829-91.897z" fill="#687e5e"/></svg>

<svg width="3024" height="702" viewBox="0 0 3024 702" fill="none" xmlns="http://www.w3.org/2000/svg">
    <path d="M413.75 522.396C379.539 515.833 181.521 533.926 150.25 522.396C78.25 495.847 -0.25 421.83 -0.25 421.83V702H4284.05C4284.05 702 4152.5 658.151 4135.95 654.819C4130 653.623 4112.43 649.153 4090.31 643.517L4090.15 643.476L4090.09 643.464C4050.73 633.44 3997.04 619.767 3968.5 614.293C3934.3 607.732 3881.39 591.946 3846.18 581.437L3846.16 581.432C3835.4 578.222 3826.3 575.506 3819.89 573.696C3792.48 565.961 3707.32 567.503 3689.36 569.164C3671.41 570.825 3591.61 581.951 3572.95 586.104C3563.21 588.272 3526.17 585.794 3490.94 583.437C3458.68 581.279 3427.94 579.223 3421.09 580.931C3395.59 587.285 3381.26 582.399 3350.36 571.863C3332.16 565.66 3308.22 557.498 3272.87 548.52C3271.81 548.25 3270.56 547.98 3269.13 547.691C3267.72 547.406 3266.14 547.103 3264.36 546.764C3244.29 542.944 3199.96 534.503 3119.6 495.847C3083.57 478.515 3018.12 422.984 2974.25 367.353C2961.51 349.117 2944.42 334.074 2925.29 317.239L2925.28 317.227C2912.77 306.212 2899.38 294.427 2885.76 280.476C2882.35 276.986 2879.08 273.611 2875.88 270.31C2845.55 239.049 2821.76 214.533 2754.85 162.779C2609.83 50.6476 2418.56 -64.1345 2241.56 42.2711C2236.81 45.1285 2228.89 49.7272 2218.79 55.5825C2175.11 80.9271 2090.87 129.81 2048.23 162.779C1981.31 214.533 1957.53 239.049 1927.2 270.31C1924 273.611 1920.73 276.986 1917.32 280.476C1903.7 294.427 1890.31 306.212 1877.8 317.227L1877.79 317.239C1858.66 334.074 1841.57 349.117 1828.83 367.353C1788.96 424.419 1719.51 478.515 1683.48 495.847C1603.12 534.503 1558.79 542.944 1538.72 546.764L1538.69 546.77C1535.11 547.452 1532.31 547.986 1530.21 548.52C1494.86 557.498 1470.92 565.66 1452.72 571.863C1421.82 582.399 1407.49 587.285 1381.99 580.931C1375.14 579.223 1344.41 581.279 1312.14 583.437C1276.91 585.794 1239.87 588.272 1230.13 586.104C1211.47 581.951 1131.67 570.825 1113.72 569.164C1095.76 567.503 1010.6 565.961 983.19 573.696C976.777 575.506 967.675 578.222 956.921 581.432L956.907 581.437C921.696 591.942 868.786 607.73 834.579 614.293C586.223 661.932 649.913 567.697 413.75 522.396Z" fill="#687E5E"/>
</svg>
